X:170
T: Rocks of Clare
S: Reavy Collection: "Music of Corktown"
M: 4/4
L: 1/8
R: hornpipe %"highland"
Z: B.Black
K: Amix
ag|ecAB cdec|dBGA Bcdf|ecAB cdef|gedB A2 a/^g/f|
ecAB cdec|dBGA Bcdf|ecAB cdef|gedB A2 :|
A^g|a=gab agef|gfga gede|a^gab a=gef|gedB A2 A^g|
a=gab agef|gfec dBGB|ABcd egfa|gedB A2 :|
